(Generated with: DXF2GCODE, Version: Py3.4.4 PyQt5.4.1, Date: $Date: Sun Apr 17 16:32:22 2016 +0200 $)
(Created from file: C:/WorkData/Firmware/PrecisionLayout/Archive/PrecisionLayout/Samples/_dxf2gcode/24.DXF)
(Time: Mon Feb 27 04:02:46 2017)
G21 G91 G21
G91
G00 X34.6 Y19.8
M07
G01 X0 Y8.9
G01 X-0.2 Y0.1
G03 X0.3 Y0.2 I-0.3 J0.6
G03 X0.1 Y0.3 I-0.4 J0.3
G03 X-0.1 Y0.6 I-1.8 J0.1
G02 X-0.1 Y0.5 I2.2 J0.6
G02 X0.2 Y0.4 I0.5 J0
G02 X0 Y4.6 I15.3 J2.3
G02 X0.1 Y0.1 I0.2 J-0.2
G02 X0.1 Y-0 I0 J-0.4
G03 X0.1 Y-0 I0.1 J0.5
G03 X0.1 Y0 I0 J0.2
G03 X0.1 Y0.1 I-0.1 J0.2
G03 X0.1 Y0.1 I-0.4 J0.3
G03 X-0.1 Y0.1 I-6.9 J-4.1
G02 X-0.1 Y0.1 I1.2 J0.7
G02 X-0 Y0.1 I0.1 J0
G02 X0.1 Y0 I0.1 J-0.1
G02 X0.2 Y0.1 I0.7 J-1.8
G03 X0.1 Y0 I-2.8 J9.3
G03 X0.1 Y-0.1 I0.8 J0.8
G03 X0.2 Y-0.1 I2.1 J3
G02 X0.3 Y-0.2 I-0.9 J-1.5
G02 X0.2 Y-0.3 I-0.4 J-0.4
G03 X-0.1 Y-4.2 I4811.6 J-139
G02 X-0.3 Y-11.4 I-1716 J46.3
G02 X-0.4 Y-0.1 I-0.5 J1.4
G02 X-0.5 Y0 I-0.2 J5.4
G03 X-0.3 Y0 I-0.4 J-8
M08
G00 X-12.4 Y18
M07
G01 X-0.3 Y0.7
G02 X2.5 Y0.8 I33.5 J-102.2
G03 X1.8 Y0.6 I-46.1 J152.1
G02 X0.1 Y-0.2 I-0.9 J-0.6
G02 X0.1 Y-0.2 I-2.8 J-1.1
G03 X0.1 Y-0.2 I2.6 J0.8
G03 X0.1 Y-0.2 I0.9 J0.4
G01 X-4.5 Y-1.2
M08
G00 X21.6 Y-30
M07
G02 X0.5 Y1.9 I5.8 J-0.5
G02 X0.3 Y0.2 I0.4 J-0.2
G02 X0.4 Y-0 I0.1 J-1.1
G03 X0.2 Y-0 I0.6 J2.6
G02 X0.6 Y-1.5 I-1.7 J-1.6
G02 X-0.2 Y-1.6 I-4.1 J-0.2
G02 X-0.5 Y-0.6 I-1.3 J0.6
G02 X-0.7 Y-0 I-0.4 J0.6
G02 X-0.5 Y1.8 I1.7 J1.5
M08
G00 X-23.6 Y28.8
M07
G03 X-0.2 Y0.4 I-2.9 J-1.2
G02 X-0.2 Y0.4 I4.5 J2.4
G02 X-0.1 Y0.4 I0.8 J0.4
G02 X0.2 Y0.2 I0.2 J0
G02 X0.5 Y0 I0.3 J-1
G03 X0.3 Y-0 I0.2 J0.7
G03 X0.3 Y0.1 I-0.3 J2.4
G02 X0.2 Y0 I0.8 J-2.7
G02 X0.2 Y0 I0.1 J-0.6
G02 X0.1 Y-0.1 I-0 J-0.2
G02 X0.1 Y-0.2 I-0.3 J-0.2
G02 X-0.4 Y-0.4 I-1.4 J0.9
G02 X-0.5 Y-0.4 I-3.6 J4.6
G03 X-0.6 Y-0.4 I2.7 J-4.5
M08
G00 X23.8 Y-28.8
M07
G02 X0.4 Y1.6 I3.1 J0
G03 X0.1 Y0.1 I-0.3 J0.5
G02 X0.1 Y0.1 I0.3 J-0.3
G02 X0.1 Y-0 I0.1 J-0.1
G02 X0.5 Y-1.5 I-1.8 J-1.5
G02 X-0.4 Y-1.5 I-3.3 J-0
G03 X-0.1 Y-0 I0.2 J-0.3
G03 X-0.1 Y-0.1 I0.9 J-0.8
G02 X-0.1 Y-0.1 I-0.4 J0.3
G02 X-0.2 Y-0 I-0.1 J0.1
G02 X-0.5 Y1.5 I2 J1.5
M08
G00 X-0.2 Y2.8
M07
G02 X0.3 Y0.7 I0.9 J0
G02 X0.7 Y0.4 I1.4 J-1.5
G02 X-0 Y-0.4 I-0.3 J-0.2
G02 X-0.3 Y-0.3 I-1.3 J0.9
G03 X-0.2 Y-0.2 I1.9 J-2.2
G03 X-0.1 Y-0.2 I0.5 J-0.5
G01 X-0.3 Y0
M08
G00 X-32.6 Y24.3
M07
G03 X-0.1 Y0.1 I-1.1 J-0.4
G02 X-0.1 Y0.2 I0.9 J0.5
G02 X-0 Y0.2 I0.4 J0.1
G02 X4 Y1.2 I20.2 J-60
G03 X4 Y1.2 I-15.8 J59.7
G01 X0.4 Y-0.8
G01 X-2.9 Y-0.8
G03 X-0 Y0.2 I-0.2 J0
G03 X-0.1 Y0.1 I-0.2 J-0.1
G03 X-0.1 Y0 I-0.2 J-0.5
G03 X-0.2 Y0 I-0.2 J-2.1
G02 X-0.1 Y0 I0.1 J2.2
G03 X-0.2 Y-0 I-0 J-0.7
G03 X-0.2 Y-0.1 I0.6 J-2.2
G02 X-0.3 Y-0.1 I-0.4 J1
G02 X-0.2 Y0.1 I-0 J0.2
G02 X-0.1 Y-0.1 I-0.2 J0.1
G02 X-0.2 Y-0 I-0.2 J0.7
G03 X-0.2 Y-0 I-0.1 J-0.8
G03 X-0.2 Y-0.1 I0.1 J-0.2
G02 X-0.9 Y-0.8 I-1.9 J1.4
G02 X-1 Y-0.3 I-1.9 J4.6
G03 X-1.1 Y-0.3 I1 J-5.7
M08
G00 X16.1 Y3.5
M07
G01 X-0.8 Y1.7
G02 X0.7 Y0.5 I0.8 J-0.5
G02 X0.9 Y0 I0.5 J-3.8
G03 X0.5 Y-0 I0.7 J8.6
G03 X0.4 Y0 I0.1 J2.4
G03 X-0 Y-0.3 I0.3 J-0.1
G03 X0.1 Y-0.2 I0.6 J0.3
G02 X0.1 Y-0.1 I-0.8 J-0.8
G02 X0.1 Y-0.1 I-0.3 J-0.2
G01 X-2.1 Y-1.4
M08
G00 X21.5 Y-18.3
M07
G02 X-0 Y0.2 I0.5 J0.1
G02 X0 Y0.2 I2.2 J-0.3
G03 X0.1 Y0.3 I-2.4 J0.6
G03 X-0 Y0.3 I-0.9 J0.1
G01 X1.4 Y-0.1
G01 X-0.1 Y-1.1
G01 X-1.5 Y0.1
M08
G00 X-37.3 Y3.3
M07
G02 X-0.1 Y0 I0.1 J0.2
G02 X-0 Y0.1 I0.3 J0.3
G03 X0 Y1.3 I-7.1 J0.8
G02 X0 Y1.1 I6.5 J0.4
G01 X0.2 Y0
G02 X0 Y-2.5 I-8.2 J-1.3
G02 X-0.1 Y-0 I-0.1 J0.5
M08
G00 X37 Y-7
M07
G02 X0 Y3 I13.9 J1.5
G03 X0.4 Y-0 I0.2 J2.4
G03 X0.5 Y0 I-0.8 J10.7
G02 X0.7 Y0.1 I1 J-8
G02 X0.6 Y-0.1 I0.1 J-1.7
G02 X0.4 Y-0.3 I-0.2 J-0.6
G02 X0.1 Y-0.7 I-1.1 J-0.4
G01 X-0.1 Y-1.9
G01 X-2.5 Y-0.1
M08
G00 X-36.8 Y11
M07
G02 X-0.2 Y0.2 I0.2 J0.5
G02 X-0.1 Y0.4 I0.9 J0.4
G02 X0.1 Y0.8 I4 J0.2
G03 X0 Y0.3 I-6.4 J0.9
G01 X0.1 Y0
G02 X0.1 Y-1.7 I-3.3 J-1
M08
G00 X30 Y-6.7
M07
G03 X-0.1 Y0.7 I-3.5 J-0
G03 X-0.2 Y0.7 I-13.6 J-2.7
G02 X-0.2 Y0.7 I12.1 J3.1
G02 X-0.1 Y0.6 I2.3 J0.5
G02 X0.2 Y0.4 I0.6 J-0
G02 X0.5 Y0.1 I0.4 J-0.5
G01 X0 Y-3.1
G01 X-0.2 Y-0.1
M08
G00 X-30.1 Y9
M07
G01 X-0.2 Y0.2
G01 X0.4 Y2.1
G01 X0.2 Y0
G01 X-0.4 Y-2.3
M08
G00 X26 Y-4.6
M07
G01 X0.1 Y3.3
G02 X1 Y-0.1 I0.4 J-0.7
G02 X0.3 Y-0.4 I-1.3 J-1.4
G02 X0.3 Y-0.5 I-6.3 J-3.9
G03 X0.2 Y-0.4 I7.3 J3.9
G03 X0.2 Y-0.3 I1.7 J1
G02 X-0.5 Y-0 I-0.3 J4.5
G03 X-0.5 Y-0 I-0.2 J-3
G03 X-0.5 Y-0.2 I0.2 J-1.7
G01 X-0.1 Y-0.9
G03 X0.2 Y-0.1 I0.4 J0.4
G03 X0.3 Y-0.1 I0.4 J1.2
G03 X0.7 Y-0 I0.4 J5
G02 X0.5 Y0 I0.4 J-6.6
G02 X0.4 Y-0.1 I0 J-1.2
G02 X0.4 Y-0.1 I-1.1 J-3.3
G03 X0.5 Y-0.2 I1.6 J3.4
G02 X-1.1 Y0.1 I1.7 J37.8
G03 X-2.4 Y0.1 I-2 J-22.7
M08
G00 X-25.7 Y7.3
M07
G02 X0.3 Y1 I3.1 J-0.4
G02 X0.7 Y0.8 I1.9 J-0.9
G02 X-0.1 Y-0.5 I-2.1 J0.4
G02 X-0.2 Y-0.5 I-7.5 J3.3
G03 X-0.4 Y-0.9 I4.5 J-2.5
G01 X-0.2 Y0
M08
G00 X25 Y-3.3
M07
G01 X0.1 Y5.1
G01 X0.3 Y0.2
G01 X1.4 Y-0.2
G02 X-0.1 Y-5.4 I-50.6 J-1.9
G02 X-0.9 Y-0.1 I-0.6 J2.4
G02 X-0.8 Y0.3 I0.2 J2
M08
G00 X-24.9 Y-13.2
M07
G01 X0.1 Y5.1
G02 X0.1 Y0 I0.1 J-0.2
G02 X0.1 Y-0 I-0 J-0.1
G02 X0 Y-0.1 I-0.1 J-0.1
G02 X0 Y-0.1 I-0.7 J-0.3
G03 X0 Y-0.1 I0.6 J0.2
G03 X0.6 Y-0.3 I0.6 J0.8
G03 X0.5 Y0.1 I0 J0.8
G02 X-0.4 Y0.6 I0.5 J0.7
G02 X0.1 Y0.7 I1.5 J0.2
G01 X0.1 Y0.2
G03 X-0.3 Y0.1 I-0.3 J-0.6
G03 X-0.3 Y0 I-0.2 J-2.6
G02 X-0.3 Y0 I-0.1 J3.2
G01 X-0.1 Y-0.4
G01 X-0.1 Y0.1
G03 X0.1 Y1.4 I-7 J1.1
G02 X0.1 Y1.4 I7 J0.3
G02 X0.6 Y-0.7 I-2.5 J-2.9
G02 X0.5 Y-0.8 I-10.7 J-7.9
G03 X0.5 Y-0.7 I12.2 J7.7
G02 X0.1 Y0 I0 J-0.2
G03 X0.2 Y-0 I0.1 J0.3
G03 X0.1 Y0.1 I-0 J0.1
G01 X-2.1 Y2.9
G02 X0 Y0.1 I0.4 J-0
G02 X0 Y0.1 I1.1 J-0.3
G03 X0 Y0.1 I-0.7 J0.3
G03 X-0 Y0.2 I-0.4 J0.1
G01 X0.1 Y0
G03 X1.9 Y-3 I29.2 J16.8
G02 X1.9 Y-3 I-27.2 J-19.8
G01 X-0.2 Y-0.1
G01 X-0.8 Y1.1
G01 X-0.1 Y-0.1
G01 X0.7 Y-1.1
G02 X-2.2 Y-2.7 I-27.7 J20.5
G03 X-1.1 Y-1.3 I54 J-47.9
G01 X-0.4 Y0.1
M08
G00 X27.2 Y15.2
M07
G02 X-0 Y0.6 I2.8 J0.4
G02 X0 Y0.7 I11.4 J-0.5
G03 X0.1 Y1.1 I-8.1 J0.9
G03 X-0.2 Y1 I-2.4 J-0
G03 X1.4 Y-0.1 I1.2 J11.4
G02 X1.1 Y-0 I0.2 J-15.6
G02 X1 Y-0.2 I-0.3 J-4.8
G03 X0.1 Y-0.1 I0.4 J0.3
G02 X-0.5 Y-0.1 I-0.6 J2
G02 X-0.6 Y-0 I-0.6 J8.3
G03 X-1.1 Y-0.1 I-0.1 J-4.3
G03 X-0.8 Y-0.6 I0.2 J-1.1
G01 X-0.6 Y-2.1
M08
G00 X-25.9 Y-9.8
M07
G02 X0.2 Y0.6 I1.2 J-0
G02 X0.5 Y0.3 I0.5 J-0.3
G03 X0.2 Y-0.1 I0.7 J1.6
G02 X0.2 Y-0.1 I-0.4 J-1.6
G02 X0.2 Y-0.2 I-0.3 J-0.6
G02 X-0.2 Y-0.2 I-2.9 J2.7
G03 X-0.2 Y-0.2 I2.6 J-2.8
G03 X-0.2 Y-0.2 I0.8 J-0.7
G03 X0.4 Y0 I0.2 J0.3
G03 X0.3 Y0.3 I-0.8 J1.2
G02 X0.1 Y0.1 I3 J-2.8
G02 X-0 Y-0.5 I-0.5 J-0.2
G02 X-0.4 Y-0.4 I-0.8 J0.4
G02 X-1.1 Y0.6 I-0.2 J0.9
M08
G00 X22.8 Y19.7
M07
G01 X0 Y0.2
G01 X0.8 Y0.2
G01 X-0.8 Y-0.5
M08
G00 X-24 Y-26.2
M07
G02 X0.4 Y0.7 I2.8 J-1.1
G02 X0.6 Y0.7 I8 J-6.5
G03 X0.6 Y0.7 I-7 J6.8
G02 X0.2 Y-0.3 I-0.1 J-0.2
G02 X-0.1 Y-0.3 I-0.6 J0
G01 X-1.5 Y-1.7
G01 X-0.2 Y0.1
M08
G00 X24.5 Y19.1
M07
G02 X-0.1 Y0.5 I1.1 J0.5
G02 X0 Y0.5 I5.1 J0.1
G03 X-0 Y0.9 I-3 J0.4
G03 X-0.5 Y0.6 I-0.8 J-0.2
G01 X0.1 Y4.1
G02 X8.3 Y1.4 I5.5 J-7.3
G02 X5.8 Y-5.3 I-3 J-9
G03 X-0.3 Y0.1 I-0.2 J-0.2
G03 X-0.4 Y-0.1 I0.2 J-1.1
G03 X-0.7 Y-0.6 I1.3 J-2.2
G03 X-2.6 Y-0.1 I-0.8 J-14.6
G02 X-1.2 Y-0.1 I-2.9 J29.9
G03 X-0.4 Y0.5 I-0.7 J-0.2
G03 X-0.6 Y-0 I-0.3 J-0.7
G02 X-1 Y-0.5 I-1.5 J1.8
G02 X-1.1 Y-0.1 I-1.4 J6.6
G03 X-1.3 Y-0.2 I0.2 J-6.6
G03 X-0.4 Y-0.1 I0 J-0.9
G03 X-0.4 Y-0.2 I1.4 J-2.6
G02 X-0.5 Y-0.3 I-1.1 J1.3
G02 X-0.3 Y-0 I-0.1 J0.6
G02 X-0.3 Y0.2 I0.2 J0.8
G02 X-0.4 Y-0.2 I-0.7 J1
G02 X-0.5 Y-0.1 I-0.9 J4.5
G03 X-0.7 Y-0.2 I0.1 J-2.3
G03 X-0.4 Y-0.6 I0.3 J-0.6
M08
G00 X-22.5 Y-16.8
M07
G01 X-0.1 Y0.1
G03 X1.7 Y2.2 I-42.9 J36
G02 X0.4 Y0.2 I0.6 J-0.7
G02 X0.4 Y0 I0.3 J-0.8
G01 X0 Y-0.2
G03 X-0.8 Y-0.9 I8.4 J-8.6
G02 X-0.8 Y-0.8 I-9.4 J7.8
G02 X-0.9 Y-0.6 I-2.3 J2.3
M08
G00 X14.3 Y3.4
M07
G01 X0 Y0.4
G01 X4.6 Y0.1
G03 X-0 Y-0.1 I0.1 J-0.1
G03 X0 Y-0.1 I0.6 J0
G02 X0 Y-0.1 I-0.6 J-0.1
G02 X-0.1 Y-0.1 I-0.2 J0
G01 X-4.5 Y-0.1
M08
G00 X-5.7 Y-11.1
M07
G02 X-0 Y0.4 I0.9 J0.3
G02 X0.2 Y-0.3 I-0.4 J-0.4
G02 X0.1 Y-0.4 I-2.7 J-0.9
G03 X0 Y-0.1 I10.8 J2.2
G02 X-0.2 Y0.1 I0 J0.3
G02 X-0.1 Y0.2 I0.4 J0.3
M08
G00 X10.5 Y19.4
M07
G02 X-0.8 Y5.2 I7.5 J3.8
G02 X2 Y4.8 I9.8 J-1.3
G01 X0 Y-2.1
G03 X-0.6 Y-0.3 I0.1 J-1.1
G03 X-0.5 Y-0.5 I1.6 J-1.9
G01 X-0.1 Y-7.1
M08
G00 X-5.2 Y-20.3
M07
G02 X0 Y0.4 I0.4 J0.1
G02 X0.2 Y-0.2 I-0.2 J-0.4
G02 X0.1 Y-0.2 I-0.9 J-0.4
G03 X0.1 Y-0.2 I1.1 J0.2
G03 X-0.1 Y-0.1 I0.2 J-0.2
G02 X-0 Y-0 I-0.6 J0.5
G02 X-0.2 Y0.3 I0.5 J0.5
M08
G00 X6.1 Y10.4
M07
G02 X-0.3 Y0.8 I2.7 J1.4
G02 X0.6 Y0.1 I0.6 J-1.3
G02 X0.4 Y-0.1 I0 J-0.8
G02 X0.3 Y-0.3 I-0.6 J-1
G02 X0.3 Y-0.4 I-3.5 J-2.9
G03 X0.4 Y-0.5 I2.8 J1.8
G03 X0.6 Y-0.3 I0.8 J0.8
G02 X0.3 Y-0.3 I-0.2 J-0.5
G02 X0.1 Y-0.4 I-1.4 J-0.4
G03 X0 Y-0.4 I1.8 J0.1
G03 X0.2 Y-0.3 I0.5 J0.1
G02 X-0.6 Y0.3 I0.6 J2
G02 X-0.5 Y0.4 I3.8 J5.7
G03 X-0.6 Y0.4 I-4 J-4.9
G03 X-0.6 Y0.3 I-1 J-1.6
G02 X-0.6 Y0.7 I1.2 J1.6
M08
G00 X3.3 Y10.4
M07
G03 X0.1 Y4.2 I-28.8 J2.6
G03 X0.1 Y-0.2 I0.5 J0.1
G03 X0.2 Y-0.1 I0.4 J0.3
G03 X0.3 Y-0 I0.2 J0.6
G03 X0.2 Y0.2 I-0.3 J0.4
G03 X0.1 Y0.2 I-1 J0.5
G02 X0.1 Y0.2 I1.4 J-0.4
G02 X0.1 Y-0 I0.1 J-0.2
G02 X0.1 Y-0.1 I-0.3 J-0.4
G02 X-0 Y-3.1 I-30.7 J-0.7
G03 X-0.1 Y-1.3 I50 J-3.2
G02 X-0.2 Y-0 I-0.2 J0.6
G02 X-0.3 Y0 I0.4 J4.7
G02 X-0.6 Y0.1 I1 J6.3
M08
G00 X-2.3 Y19.6
M07
G01 X0.1 Y0.5
G03 X0.2 Y-0 I0.2 J2.4
G02 X0.3 Y-0 I0.1 J-2.2
G02 X0.2 Y-0.1 I-0 J-0.6
G01 X0 Y-0.2
G01 X-0.8 Y-0.1
M08
G00 X2.4 Y-14.9
M07
G02 X-0.1 Y0.2 I0.2 J0.2
G03 X0.1 Y-0 I0.1 J0.5
G03 X0.1 Y0 I-0 J2.8
G02 X0.3 Y-0 I0.1 J-1.5
G02 X0.3 Y-0.1 I-0 J-0.4
G02 X-0 Y-0.1 I-0.2 J0
G02 X-0.1 Y-0.1 I-0.5 J0.4
G03 X-0.1 Y-0.1 I0.7 J-0.8
G03 X-0 Y-0.1 I0.2 J-0.2
G03 X-0.1 Y0.1 I-0.3 J-0.3
G03 X-0.1 Y0.1 I-0.7 J-1.3
G02 X-0.2 Y0.1 I0.3 J0.6
M08
G00 X-2.3 Y2.9
M07
G02 X-0 Y0.2 I0.3 J0.1
G02 X0.1 Y0.2 I2 J-0.4
G03 X0.1 Y0.3 I-2.2 J0.7
G03 X0 Y0.3 I-0.6 J0.1
G02 X-0.1 Y6.9 I166.8 J5
G03 X0 Y3.7 I-392.4 J2.1
G02 X-0 Y0.1 I0.1 J0.1
G02 X0.1 Y0.1 I0.1 J-0
G02 X0.1 Y0 I0.2 J-0.3
G02 X0.1 Y0 I0.3 J-1.4
G03 X0.1 Y0 I-0.2 J1.8
G03 X0.1 Y0 I-0.1 J0.4
G02 X0.1 Y0 I0.1 J-0.3
G02 X0.1 Y-0.1 I-0 J-0.1
G02 X0 Y-0.1 I-0.2 J-0.1
G02 X-0 Y-0.1 I-1 J-0
G03 X-0 Y-0.2 I0.7 J-0.1
G03 X0.1 Y-0.1 I0.2 J0
G01 X-0.3 Y-11.4
G02 X-0.3 Y0 I-0.1 J0.8
G02 X-0.1 Y0.1 I0 J0.2
M08
G00 X7.1 Y-11.4
M07
G03 X0.1 Y0.3 I-0.4 J0.3
G03 X-0 Y0.3 I-2.6 J0.1
G02 X-0 Y0.3 I2.9 J0.3
G02 X0 Y0.2 I0.6 J0
G02 X0.2 Y0.1 I0.2 J-0.1
G02 X0.3 Y-0 I0.1 J-0.7
G03 X3 Y-0.1 I4 J85.2
G02 X5.3 Y-0.3 I-0 J-49.3
G02 X0.2 Y-0.6 I-1.3 J-0.7
G02 X-0.2 Y-0.6 I-1.1 J-0
G03 X-4.7 Y0.2 I-4.4 J-44.4
G02 X-4.2 Y0.2 I-0.1 J52.4
M08
G00 X1 Y-18.4
M07
G01 X0 Y0.8
G02 X0.1 Y-0 I-0 J-0.3
G02 X0.1 Y-0.1 I-0.1 J-0.2
G02 X0 Y-0.1 I-0.3 J-0.1
G02 X0 Y-0.1 I-1.1 J-0.2
G03 X0 Y-0.1 I0.9 J0.1
G03 X0.1 Y-0.1 I0.2 J0.1
G03 X-0 Y-0.4 I0.9 J-0.3
G03 X0.1 Y-0.4 I2.2 J0.4
G02 X0.1 Y-0.3 I-1.9 J-0.7
G02 X-0 Y-0.3 I-0.6 J-0.1
G02 X-0.2 Y0.3 I0.2 J0.4
G02 X-0.1 Y0.4 I1.9 J0.6
G03 X-0.1 Y0.3 I-3.3 J-0.5
G03 X-0.1 Y0.3 I-0.9 J-0.2
M08
G00 X0 Y1.4
M07
G03 X-0 Y0.3 I-10.3 J-0.1
G02 X0 Y0.9 I4.3 J0.3
G02 X0.4 Y0.7 I1 J-0.1
G02 X0 Y-0.5 I-1.7 J-0.3
G02 X-0.1 Y-0.5 I-5.1 J0.8
G03 X-0.1 Y-0.4 I6.3 J-1.6
G03 X-0 Y-0.5 I2.2 J-0.4
G01 X-0.2 Y0
M08
G00 X-40.7 Y18.1
M07
G01 X-0 Y0.4
G02 X8 Y1.3 I17.3 J-78.9
G02 X-0.4 Y-0.4 I-0.6 J0.2
G02 X-0.9 Y-0.3 I-1.6 J3.4
G02 X-2.6 Y-0.4 I-5.2 J27.2
G03 X-2.2 Y-0.3 I5.7 J-53.3
G03 X-1.9 Y-0.4 I1.8 J-12.5
M08
G00 X4 Y-9.3
M07
G03 X-0 Y0.1 I-783.5 J-37.3
G02 X-0.1 Y2.6 I35.8 J2.1
G01 X3.2 Y0
G01 X0 Y-2.7
G01 X-3.1 Y-0.1
M08
G00 X64.1 Y-6
M07
G03 X-0 Y0.4 I-9.6 J-1
G02 X-0.1 Y1 I4.3 J0.8
G02 X0.1 Y0.4 I1 J-0.1
G02 X0.3 Y0.3 I0.6 J-0.4
G01 X3.7 Y0
G02 X0.3 Y-0.8 I-0.8 J-0.8
G02 X-0.1 Y-0.9 I-3.8 J0.1
G03 X-0.1 Y-0.4 I6.6 J-1.6
G02 X-4.2 Y0 I-2.1 J12.5
M08
G00 X1.2 Y8.8
M07
G01 X0.1 Y1.6
G02 X1.9 Y0 I0.9 J-5.6
G03 X0 Y-0.2 I13.6 J1.8
G02 X0.1 Y-0.9 I-5.4 J-0.9
G02 X-0.1 Y-0.4 I-1.7 J0
G02 X-0.2 Y-0.3 I-0.7 J0.2
G03 X-0.4 Y0.1 I-0.5 J-1.6
G03 X-0.5 Y-0 I-0.2 J-6.4
G02 X-0.6 Y0 I-0.2 J4.6
G02 X-0.4 Y0.1 I0 J0.9
M08
G00 X-60.8 Y-5.3
M07
G03 X0.1 Y4.5 I-67.6 J3.3
G02 X-0 Y1.5 I183.5 J1.7
G01 X-8.7 Y0.1
G02 X-0.3 Y0.2 I0.1 J0.5
G02 X-0.2 Y0.3 I0.6 J0.5
G02 X0 Y0.3 I0.5 J0.1
G02 X0.3 Y0.2 I0.4 J-0.2
G01 X8.6 Y0.2
G01 X0.2 Y0.2
G01 X0.1 Y6.5
G03 X-0 Y0.2 I-0.4 J0.1
G03 X-0.1 Y0.1 I-0.3 J-0.1
G03 X-0.2 Y0.1 I-0.3 J-0.6
G03 X-0.2 Y0 I-0.7 J-2.6
G02 X-0.2 Y0.1 I0.3 J1.7
G03 X-2.9 Y-0.5 I10.8 J-71
G02 X-5 Y-0.7 I-8.1 J38.9
G02 X3.5 Y4.9 I5.4 J-0.2
G03 X0 Y-0.2 I0.4 J-0.1
G03 X0.1 Y-0.2 I0.3 J0.1
G03 X0.2 Y0.1 I-0.6 J1.3
G03 X0.2 Y0.1 I-2.7 J4.2
G02 X0.4 Y0.2 I1.4 J-1.9
G02 X0.4 Y0 I0.3 J-0.6
G02 X0.6 Y0.5 I1 J-0.5
G02 X0.8 Y0.2 I1.5 J-3.5
G03 X0.4 Y0.1 I-1.6 J7.6
G03 X0.4 Y0.1 I-0.6 J2.2
G02 X0.1 Y-0.2 I-1.1 J-0.9
G03 X0.3 Y-0.3 I1 J0.6
G03 X0.2 Y-0.1 I0.2 J0.2
G03 X0.2 Y0.1 I-0 J0.4
G02 X3.3 Y1.5 I4.2 J-5.1
G03 X-0.2 Y-0.2 I0.2 J-0.3
G03 X-0 Y-0.3 I0.9 J-0.2
G02 X-0 Y-0.1 I-2 J-0.1
G02 X-0 Y-0.1 I-0.6 J0
G01 X1.5 Y1.6
G02 X-0.1 Y-0.5 I-0.6 J-0.1
G02 X-0.4 Y-0.4 I-1.7 J1.6
G03 X-0.4 Y-0.3 I1.8 J-2.7
G03 X-0.3 Y-0.5 I0.7 J-0.7
G03 X-1.3 Y-2.9 I8.1 J-5.4
G02 X0.1 Y-0.1 I-0.2 J-0.3
G02 X0 Y-0.1 I-0.2 J-0.1
G02 X-0 Y-0.1 I-0.3 J0
G02 X-0.1 Y-0.1 I-1.2 J0.5
G03 X-0.1 Y-0.2 I0.7 J-0.4
G03 X0 Y-0.2 I0.2 J-0.1
G02 X0 Y-0.3 I-2.3 J-0.3
G02 X-0 Y-0.4 I-10.7 J0.2
G03 X-0 Y-0.9 I6.5 J-0.4
G03 X0.2 Y-0.8 I1.6 J0.1
G02 X0.1 Y0.1 I0.3 J-0.2
G02 X0.1 Y0 I0.1 J-0.2
G02 X0.2 Y-0 I0 J-0.4
G03 X0.1 Y-0 I0.1 J0.5
G03 X0.2 Y0.1 I-0 J0.3
G02 X2 Y0.3 I43.7 J-246.1
G03 X8.4 Y1.8 I-8.7 J59.7
G03 X2.2 Y0 I1 J6.4
G03 X2.1 Y0.6 I-3.4 J17
G02 X1.8 Y0.5 I5.9 J-17.9
G02 X1.9 Y0.1 I1.4 J-6.3
G01 X0.3 Y0.1
G02 X-0 Y-0.1 I-0.8 J0
G03 X-0 Y-0.1 I0.3 J-0.1
G03 X0.1 Y-0.1 I0.1 J0
G02 X-0.7 Y-0.2 I-0.9 J2.5
G02 X-0.7 Y-0.1 I-1.2 J10.7
G03 X-0.7 Y-0 I0.6 J-12.7
G03 X-0.6 Y-0.1 I0.3 J-3.6
G02 X-2.8 Y-0.8 I-7.4 J19.6
G02 X-3 Y-0.1 I-1.9 J9
G02 X-0.8 Y-0.3 I-2.1 J4.5
G02 X-0.9 Y-0.2 I-3.8 J14.9
G03 X-0.9 Y-0.2 I3 J-15.1
G02 X-4.3 Y-0.8 I-8.6 J32.4
G03 X-4.3 Y-0.8 I5 J-37.7
G02 X0 Y-0.3 I-1.3 J-0.3
G02 X-0 Y-0.4 I-5 J0.1
G03 X0 Y-0.7 I2.3 J-0.3
G03 X0.4 Y-0.5 I0.6 J0.1
G01 X4.3 Y-6.6
G02 X-4.6 Y-5.3 I-71.4 J57.6
G03 X-0.2 Y0 I-0.4 J-1.4
G03 X-0.3 Y0 I-0.5 J-4.7
G02 X-0.4 Y0.1 I0.1 J2.7
G02 X-0.4 Y0.2 I0.2 J0.9
M08
G00 X33 Y-9.6
M07
G02 X0 Y0.3 I0.5 J0.1
G03 X0.2 Y-0.2 I1.6 J1.5
G02 X0.4 Y-0.4 I-1.4 J-1.8
G02 X0.1 Y-0.2 I-0.5 J-0.4
G02 X-0 Y-0.2 I-0.3 J-0.1
G02 X-0.5 Y0.4 I0.5 J1.2
G02 X-0.1 Y0.3 I0.6 J0.5
M08
G00 X-33.9 Y29.1
M07
G01 X-0.5 Y0.9
G02 X0.2 Y0 I0.2 J-1.1
G02 X0.2 Y-0 I-0.1 J-3.5
G03 X0.4 Y0 I0.2 J1.7
G03 X0.3 Y0.2 I-0.1 J0.5
G03 X0.1 Y-0.1 I2 J0.9
G02 X0.1 Y-0.2 I-1 J-0.6
G02 X0 Y-0.2 I-0.4 J-0.1
G03 X-0.3 Y-0.2 I1.1 J-2.1
G03 X-0.3 Y-0.2 I6.9 J-9.7
G02 X-0.2 Y-0.1 I-9.7 J13
M08
G00 X35 Y-5.5
M07
G02 X-0.5 Y1.3 I2.4 J1.7
G02 X-0.2 Y1.5 I13.1 J2.4
G03 X-0.1 Y1 I-21 J-1.6
G03 X-0.2 Y0.9 I-5.4 J-0.6
G03 X0 Y0.3 I-1.6 J0.2
G03 X-0 Y0.3 I-4.9 J-0.1
G02 X0 Y0.5 I2.5 J0.3
G02 X0.2 Y0.5 I1 J-0.1
G02 X5.7 Y0.2 I4.3 J-38.1
G03 X2.5 Y-0 I1.5 J88
G02 X1.2 Y-3.2 I-21.6 J-9.7
G03 X0.9 Y-2.5 I29.2 J8.6
G01 X-0.1 Y-0.3
G03 X-0.6 Y0 I-0.4 J-5.7
G02 X-1 Y0.1 I-0.2 J3.2
G02 X-0.7 Y0.7 I0.3 J1.1
G03 X-0 Y0.2 I-0.3 J0
G03 X-0.1 Y0.2 I-2 J-0.8
G02 X-0.1 Y0.2 I2.4 J1.3
G02 X-0.1 Y0.3 I0.8 J0.3
G03 X-0 Y1.3 I-2.7 J0.6
G03 X-0.4 Y1.2 I-8.8 J-2.1
G02 X-0.4 Y1.1 I7.6 J3
G01 X0 Y0.5
G01 X-2.2 Y0.1
G02 X-0.2 Y-0.1 I-0.4 J0.4
G02 X-0.2 Y-0.1 I-1.1 J2.1
G03 X-0.2 Y-0.1 I1 J-2.4
G03 X-0.2 Y-0.1 I0.3 J-0.5
G03 X-0.1 Y-0.2 I0.2 J-0.2
G03 X0.1 Y-0.2 I0.4 J-0
G03 X-0.1 Y-0.1 I7 J-17.5
G02 X-0.5 Y-0.2 I-2 J4.7
G03 X0.5 Y-0.3 I0.6 J0.6
G03 X0.6 Y-0.1 I0.7 J3.5
G02 X0.4 Y-0 I-0.2 J-4.2
G02 X0.3 Y-0.1 I-0.1 J-0.8
G02 X0.2 Y-0.2 I-0.2 J-0.3
G02 X-0 Y-0.4 I-0.9 J-0.1
G03 X-2.4 Y0.4 I-4.9 J-22.2
G03 X-2.5 Y-0 I-1.1 J-11.4
G01 X0.5 Y-3.6
G03 X0.5 Y-0.3 I0.7 J0.5
G03 X0.6 Y0 I0.3 J1.4
G03 X1.6 Y0.1 I-1.5 J35.1
G02 X2.7 Y0.1 I2.4 J-24.6
G02 X1.1 Y-0.1 I-0.1 J-5.2
G02 X0.7 Y-0.4 I-0.3 J-1.5
G03 X-2.8 Y-0.1 I3.2 J-100.5
G02 X-4.3 Y-0.1 I-4 J59.7
M08
G00 X-37.6 Y5.5
M07
G01 X-0.1 Y0.4
G02 X1.8 Y0.6 I5.2 J-13
G01 X0.2 Y-0.4
G01 X-1.9 Y-0.5
M08
G00 X37.4 Y-6
M07
G01 X0.1 Y0.1
G02 X5.2 Y-0.4 I-2 J-68.3
G03 X2.8 Y-0.2 I12.5 J129.8
G01 X0 Y-0.2
G02 X-3.6 Y0.3 I4.2 J75
G03 X-4.5 Y0.3 I-6.7 J-61.9
M08
G00 X-38.5 Y5.2
M07
G03 X-0.1 Y0.2 I-0.4 J-0
G03 X-0.1 Y0.1 I-1.2 J-0.6
G02 X-0.1 Y0.2 I1 J0.7
G02 X-0 Y0.2 I0.4 J0.2
G01 X0.7 Y0.1
G01 X0.2 Y-0.4
G01 X-0.6 Y-0.4
M08
G00 X42.4 Y-22.5
M07
G02 X-0.2 Y1.2 I3.4 J1.1
G02 X0.1 Y0.6 I2.2 J-0
G02 X0.2 Y0.4 I0.8 J-0.2
G01 X4.4 Y0
G02 X0.3 Y-1 I-1.6 J-0.9
G02 X-0.2 Y-1 I-3.1 J-0
G01 X-4.6 Y-0.1
M08
G00 X-27.7 Y2.7
M07
G02 X0.5 Y1.5 I7.9 J-1.9
G02 X1 Y1.2 I2.8 J-1.3
G03 X0.2 Y-0 I0.1 J2.8
G02 X0.4 Y-0 I0.1 J-1.3
G02 X0.3 Y-0.3 I-0.1 J-0.5
G02 X-0.4 Y-0.2 I-4.6 J8.6
G03 X-0.9 Y-0.5 I2.1 J-4.7
G03 X-0.7 Y-0.8 I1.2 J-1.6
G01 X-0.5 Y-0.8
M08
G00 X-15.6 Y3.7
M07
G03 X0 Y0.7 I-2.5 J0.4
G03 X-0.1 Y0.7 I-7.8 J-0.9
G02 X-0.1 Y0.6 I9.6 J2
G02 X-0 Y0.6 I3.4 J0.5
G03 X0.1 Y0 I-0.4 J1.2
G02 X0.3 Y0.1 I0.5 J-1.2
G02 X0.3 Y-0.1 I0.1 J-0.3
G01 X0.1 Y-2.7
G03 X-0.2 Y0.1 I-0.2 J-0.2
G03 X-0.2 Y-0 I-0.1 J-1
G02 X-0.1 Y-0 I-0.2 J2.1
G02 X-0.1 Y0 I-0 J0.6
M08
G00 X51.6 Y-4.9
M07
G01 X0.1 Y0.7
G01 X3.4 Y0
G03 X0 Y-0.3 I4.4 J0
G02 X0 Y-0.5 I-2.9 J-0.3
G02 X-0.2 Y-0.5 I-1.1 J0.1
G01 X-3 Y-0.1
G02 X-0.2 Y0.1 I0 J0.3
G02 X-0.1 Y0.2 I0.8 J0.5
G03 X-0.1 Y0.2 I-1.1 J-0.3
M08
G00 X15 Y7.9
M07
G01 X0.1 Y1.1
G03 X0.2 Y0 I0 J1.1
G03 X0.2 Y0 I-0.4 J3.1
G02 X0.4 Y0 I0.3 J-1.2
G02 X0.4 Y-0.2 I-0.1 J-0.7
G01 X-0.1 Y-0.9
G01 X-1.2 Y0
M08
G00 X-18.1 Y-3
M07
G03 X0.1 Y4.6 I-50.4 J3.9
G02 X0.1 Y3.7 I66.3 J0.6
G02 X8.5 Y-0.1 I2.6 J-161.7
G03 X7.2 Y-0.1 I6.9 J206.8
G01 X0.1 Y-0.1
G01 X-0.2 Y-7.9
G01 X-3.5 Y-0.1
G01 X-11.8 Y-0.1
G01 X-0.4 Y0.1
M08
G00 X-51.5 Y-5.7
M07
G02 X-0.2 Y0.7 I3.3 J1.2
G02 X-0.1 Y0.7 I10.8 J1.6
G03 X-0 Y0.3 I-24.1 J-2.2
G02 X0.1 Y-0 I-0 J-0.1
G02 X0 Y-0.1 I-0.3 J-0.1
G02 X0 Y-0.1 I-1.7 J-0.4
G03 X0 Y-0.2 I1.3 J0.2
G03 X0.1 Y-0.2 I0.3 J0.1
G03 X0.2 Y0.1 I-0.1 J0.4
G03 X0 Y0.1 I-0.1 J0.1
G03 X-0 Y0.1 I-0.3 J-0
G03 X-0.1 Y0.1 I-1.6 J-0.9
G02 X-0.1 Y0.2 I1.2 J0.8
G02 X-0 Y0.3 I0.3 J0.1
G01 X0 Y1.1
G02 X0.1 Y-0.2 I-1.6 J-0.6
G03 X0.1 Y-0.2 I1.3 J0.3
G03 X0.2 Y-0.2 I0.5 J0.2
G01 X0.2 Y0.2
G02 X-0.1 Y1.3 I7.5 J1.3
G03 X-0.1 Y1 I-10.4 J-0.2
G03 X-0.2 Y0.9 I-2.9 J-0.3
G02 X-0.1 Y-0.1 I-0.4 J0.3
G02 X-0.1 Y-0 I-0.1 J0.2
G02 X-0.1 Y-0 I-0.1 J0.2
G03 X-0 Y0.2 I-1.1 J0.4
G03 X0 Y0.2 I-4.2 J0.7
G02 X0.1 Y0.4 I1.9 J-0.1
G02 X0.2 Y0.3 I0.4 J-0.1
G02 X0.3 Y-0.7 I-1 J-0.8
G02 X0.2 Y-1.5 I-11.5 J-2.2
G02 X-0.1 Y-3.5 I-16.5 J-1.2
G03 X-0.1 Y-0.4 I7 J-1.8
G02 X-0.1 Y-0.5 I-4.4 J0.8
G02 X-0.3 Y-0.5 I-1.5 J0.5
M08
G00 X50.9 Y5.1
M07
G03 X0.2 Y5.3 I-62.2 J4.5
G02 X0.1 Y4.2 I81.9 J0.6
G02 X9.1 Y-0.1 I2.8 J-162.3
G03 X7.7 Y-0.1 I7.4 J207.6
G01 X0.1 Y-0.1
G01 X-0.2 Y-9.1
G01 X-3.8 Y-0.1
G01 X-12.7 Y-0.1
G01 X-0.4 Y0.1
M08
G00 X-52.4 Y-4.8
M07
G02 X-0.4 Y3.3 I7.3 J2.7
G02 X0.2 Y-1 I-9.3 J-2.2
G03 X0.1 Y-0.7 I11.1 J1.4
G03 X0.2 Y-0.6 I2.1 J0.4
G03 X0 Y0.2 I-0.3 J0.1
G03 X-0 Y0.1 I-0.4 J-0.1
G02 X-0 Y0.1 I0.4 J0.2
G02 X0 Y0.1 I0.3 J0.1
G03 X0 Y0.3 I-0.7 J0.2
G03 X-0.1 Y0.3 I-1.8 J-0.2
G02 X-0.1 Y0.3 I1.8 J0.5
G02 X0 Y0.3 I0.8 J0.1
G01 X0.1 Y-0.2
G03 X-0.1 Y3.7 I-7 J1.7
G03 X-0.2 Y-0.3 I0.5 J-0.5
G03 X-0.1 Y-0.4 I2.5 J-0.6
G02 X-0.1 Y-0.4 I-2.5 J0.2
G02 X-0.1 Y-0.3 I-0.6 J0.1
G02 X0 Y0.9 I12.8 J-0.2
G02 X0.1 Y0.7 I5.9 J-0.4
G02 X0.2 Y0.4 I1 J-0.1
G02 X0.1 Y-0 I0 J-0.1
G02 X0.1 Y-0.1 I-0.4 J-0.5
G03 X0 Y-0 I1.2 J1
G02 X0.3 Y-3.3 I-11 J-2.7
G02 X-0.4 Y-3.3 I-24.6 J1.2
G01 X-0.1 Y-0.1
M08
G00 X48 Y-0.6
M07
G01 X0.1 Y1.4
G02 X4 Y0.1 I2.3 J-16.8
G02 X0.1 Y-0.5 I-1.9 J-0.6
G02 X0 Y-0.4 I-4.6 J-0.2
G03 X-0 Y-0.5 I7 J-0.3
G01 X-4.2 Y-0.1
M08
G00 X21.9 Y0.4
M07
G01 X0.1 Y1.3
G03 X1.2 Y0.1 I-0.2 J12.7
G02 X1.2 Y0.1 I1.4 J-12.2
G02 X1.1 Y-0.1 I0.1 J-3.9
G02 X0 Y-0.3 I-1 J-0.1
G02 X-0 Y-0.3 I-3.2 J0.4
G03 X-0.1 Y-0.3 I3.2 J-0.7
G03 X0 Y-0.4 I1.3 J-0.1
G01 X-3.5 Y-0.1
M08
G00 X-52.3 Y5.8
M07
G02 X0 Y0.6 I1 J0.2
G02 X0.4 Y1.1 I6.4 J-1.5
G02 X0.7 Y1.2 I5.1 J-2.2
G02 X1 Y0.8 I2.1 J-1.5
G01 X7.2 Y0
G01 X-0.1 Y-0.4
G01 X-7.1 Y-0.1
G03 X-1.1 Y-1 I0.8 J-2.2
G03 X-0.6 Y-1.4 I6 J-3.6
G02 X-0.3 Y-0.8 I-9.1 J3.3
M08
G00 X-3.2 Y-0
M07
G01 X0.4 Y0.4
G01 X2.4 Y0
G01 X-0.1 Y-0.4
G01 X-2.7 Y0
M08
G00 X-11.5 Y1.1
M07
G02 X-0.4 Y0.1 I0 J0.8
G02 X-0.2 Y0.3 I0.3 J0.5
G02 X-0.1 Y0.6 I1.3 J0.5
G03 X-0.8 Y0.5 I-0.9 J-0.5
G03 X-1.1 Y-0 I-0.4 J-4.3
G02 X-0.6 Y-0 I-0.9 J7.6
G03 X-0.3 Y-0.2 I0.2 J-0.5
G03 X-0.2 Y-0.3 I1.4 J-0.9
G02 X-0.1 Y-0.3 I-1.8 J0.7
G02 X0.1 Y0.6 I0.8 J0.2
G02 X0.4 Y0.4 I1.3 J-0.7
G01 X4.3 Y0
G02 X-0 Y-0.5 I-7.7 J-0.2
G03 X-0 Y-0.6 I10 J-0.3
G03 X0.1 Y-0.5 I2 J0
G03 X-0.6 Y0 I-0.4 J-3.2
G02 X-0.4 Y-0 I-0.3 J3.9
M08
G00 X14.1 Y-7.3
M07
G01 X0.2 Y2.3
G02 X0.3 Y-0.6 I-20.4 J-9.3
G03 X0.4 Y-0.9 I14.1 J5.8
G03 X0.5 Y-0.8 I5 J2.4
G02 X-0.3 Y-0.1 I-0.3 J0.3
G02 X-0.4 Y0 I-0 J2.1
G03 X-0.3 Y0 I-0.6 J-3.8
G03 X-0.3 Y-0 I-0.1 J-1.2
M08
G00 X24.4 Y1.9
M07
G02 X0.4 Y1.1 I2.7 J-0.2
G02 X0.6 Y0.8 I4 J-2.2
G01 X0.2 Y0.2
G02 X0.8 Y0.6 I1.4 J-1.1
G02 X0.9 Y0 I0.5 J-1.3
G02 X0.7 Y-0.5 I-0.5 J-1.6
G02 X0.5 Y-0.7 I-4.1 J-3.5
G03 X0.4 Y-0.5 I5.7 J3.6
G02 X-0.2 Y-0.5 I-1.5 J0.3
G02 X-0.3 Y-0.4 I-4.6 J2.8
G03 X-0.2 Y-0.2 I4.4 J-3.2
G03 X-0.1 Y-0.2 I0.7 J-0.5
G02 X-0.3 Y0.2 I3.4 J5.2
G03 X-0.7 Y0.4 I-1.8 J-2.2
G03 X-0.8 Y-0.1 I-0.3 J-0.7
G02 X-0.2 Y0.1 I-0 J0.3
G02 X-0.1 Y0.2 I0.3 J0.4
G02 X-0.2 Y0.4 I1.7 J0.9
G03 X-0 Y0.1 I-6 J-1.6
G03 X0.1 Y0.1 I-0.3 J0.2
G03 X0 Y0.1 I-0.2 J0.1
G03 X-0.1 Y0.1 I-0.2 J-0
G03 X-0.1 Y0.1 I-0.2 J-0.3
G03 X-0.1 Y-0 I0 J-0
G01 X-0.3 Y-0.1
G03 X-0.5 Y-0.5 I1.6 J-1.9
G03 X-0.4 Y-0.6 I4.2 J-2.9
M08
G00 X0.6 Y-6.3
M07
G02 X0 Y2.7 I12.1 J1.3
G02 X1 Y2.6 I5.1 J-0.5
G01 X0.5 Y0.2
G02 X1.2 Y-1.3 I-0.6 J-1.8
G02 X0.3 Y-1.9 I-7.3 J-2.3
G03 X0 Y-0.2 I83.5 J8.3
G02 X-0.1 Y-2.6 I-8.3 J-0.9
G02 X-1.3 Y-2.2 I-3.9 J0.8
G02 X-1 Y0.6 I0 J1.2
G02 X-0.4 Y1.1 I3.3 J1.8
G03 X-0.2 Y0.8 I-4.9 J-1
M08
G00 X-3.4 Y5.1
M07
G02 X1.1 Y5 I18.7 J-1.6
G03 X0.1 Y0.4 I-38.8 J6.4
G02 X0.5 Y2.3 I9.6 J-1.1
G02 X1.6 Y1.5 I2.3 J-0.8
G02 X1.2 Y-0.1 I0.2 J-5.6
G02 X1.2 Y-0.2 I-2.9 J-17.8
G03 X1.2 Y-0.2 I3.9 J16.8
G03 X0.2 Y-0 I0.1 J0.3
G03 X0.2 Y0.1 I-0.3 J0.9
G02 X0.1 Y0.1 I0.6 J-1
G03 X-1.1 Y0.3 I-2.9 J-7.5
G02 X-0.5 Y0.1 I4.1 J16.7
G01 X2.7 Y-0.2
G02 X0 Y-0.1 I-0.5 J-0.1
G02 X-0 Y-0.2 I-2.9 J0.1
G03 X-0 Y-0.4 I1.9 J-0.2
G03 X0.1 Y-0.3 I0.5 J0
G01 X-1.4 Y-0.1
G03 X0.2 Y-0.8 I4.2 J0.5
G03 X0.3 Y-0.8 I13 J4.3
G02 X0.4 Y-1.3 I-7.9 J-3.3
G01 X0.5 Y-0.8
G01 X3 Y0.1
G02 X0 Y0 I0 J0
G02 X0.1 Y-0.1 I-0.3 J-0.3
G02 X0.2 Y-0.4 I-4.1 J-2.1
G02 X0.2 Y-0.7 I-17.4 J-7
G01 X-4.7 Y-0.2
G02 X-0.7 Y1.7 I26.5 J11.5
G03 X-1.3 Y2.9 I-15.5 J-5.2
G03 X-1.3 Y0.3 I-1.6 J-4.3
G03 X-1.4 Y0 I-1.1 J-15.7
G03 X-1.1 Y-1.1 I0.8 J-2
G03 X-0.5 Y-1.6 I6.7 J-2.9
G02 X-0.4 Y-1.4 I-7.9 J1.5
G01 X-0.7 Y-3.7
G01 X-0.2 Y0
M08
G00 X-0.5 Y-2.4
M07
G02 X-0.5 Y2.2 I3.6 J1.9
G02 X0.6 Y2.1 I4.7 J-0.2
G01 X0.1 Y0
G02 X0 Y-0.5 I-1.2 J-0.3
G02 X-0.1 Y-0.5 I-4.4 J0.7
G03 X-0.1 Y-0.8 I2.1 J-0.7
G03 X0.1 Y-0.3 I0.7 J0.1
G03 X0.3 Y-0.3 I0.7 J0.6
G02 X0.1 Y-0 I-0 J-0.3
G02 X0.1 Y-0 I-0.4 J-1.3
G03 X0.1 Y-0 I0.4 J1.2
G03 X0.1 Y-0 I0.1 J0.3
G03 X0.1 Y0 I-0 J0.2
G03 X0.1 Y0.1 I-0.2 J0.2
G01 X0.2 Y-0
G02 X0 Y-0.6 I-21.6 J-1.1
G03 X0.1 Y-1.4 I9.1 J-0
G03 X0.5 Y-1.3 I2.8 J0.5
G02 X-1.1 Y0.4 I0.5 J3
G02 X-0.8 Y0.9 I1.1 J1.8
M08
G00 X-3.9 Y1.1
M07
G02 X-0.2 Y1.9 I6.5 J1.8
G02 X0.6 Y1.7 I2.6 J0
G03 X0.9 Y-0.1 I3.8 J53.3
G02 X2.3 Y-0.2 I-0.6 J-16.7
G03 X-0.5 Y-2.4 I5.2 J-2.4
G03 X0.7 Y-2.4 I4.1 J-0.2
G01 X0.5 Y-0.5
G03 X-1.2 Y0.2 I-2.5 J-9.4
G02 X-1.8 Y0.4 I0.7 J6.6
G02 X-1.2 Y1.4 I0.9 J2
M08
G00 X-4.6 Y-0.3
M07
G03 X-0.8 Y6.7 I-19.8 J1
G02 X0.2 Y0.1 I0.1 J-0.1
G02 X0.2 Y-0.1 I-0.2 J-0.9
G03 X0.1 Y-0.1 I0.6 J1.2
G03 X0.1 Y-0 I0.1 J0.3
G02 X0.2 Y0.1 I0.4 J-0.3
G02 X0.1 Y0 I0.1 J-0.2
G02 X0.1 Y-0 I-0 J-0.4
G02 X0.1 Y-0.1 I-0.6 J-1.5
G03 X0.1 Y-0.1 I0.7 J1.5
G03 X0.1 Y-0 I0.2 J0.4
G03 X0.1 Y0 I0 J0.3
G03 X0.1 Y0.1 I-0.2 J0.4
G03 X0.4 Y-0.2 I0.4 J0.3
G03 X0.4 Y0.1 I-0.1 J1.4
G02 X0.3 Y0.1 I0.4 J-1.1
G02 X0.3 Y-0.1 I0 J-0.3
G03 X0.2 Y-0 I0.2 J0.4
G03 X0.2 Y0.1 I-0.2 J0.7
G02 X0.1 Y0.1 I0.8 J-1.6
G03 X0.1 Y-0.1 I0.1 J0.1
G03 X0.1 Y-0 I0.1 J0.3
G03 X0.3 Y0.1 I-0.2 J1.3
G02 X0.4 Y0.1 I0.4 J-1.1
G02 X0.2 Y-0.1 I-0 J-0.4
G02 X0.2 Y-0.2 I-0.3 J-0.4
G02 X0.3 Y0.1 I0.3 J-0.2
G02 X0.3 Y-0.1 I-0 J-0.9
G03 X0.3 Y-0.1 I0.3 J0.8
G03 X0.3 Y0.1 I-0 J0.3
G02 X0.5 Y-0.1 I-0.8 J-3.7
G02 X0.6 Y-0.2 I-5.1 J-14.6
G03 X0.1 Y-0 I41.8 J107.3
G02 X0.5 Y0.1 I0.3 J-0.4
G02 X0.2 Y-0.1 I-0.1 J-0.3
G02 X0 Y-0.2 I-0.2 J-0.1
G02 X0.2 Y-0.1 I-0.5 J-1.1
G02 X0.1 Y-0.1 I-0.1 J-0.2
G02 X-0.1 Y-0.1 I-0.1 J0
G02 X-0.2 Y-0.1 I-0.4 J0.6
G02 X-1.5 Y-0.2 I-2.1 J10.1
G03 X-1 Y-0.1 I2.9 J-33.3
G03 X-0.5 Y-2.4 I22.5 J-6.2
G02 X-0 Y-0.4 I-26.5 J0.1
G03 X0.1 Y-1.8 I8.3 J-0.4
G03 X0.9 Y-1.7 I2.8 J0.5
G02 X-1.8 Y0.5 I0 J3.8
G02 X-1.3 Y1.3 I1.6 J2.8
G02 X0.4 Y3.7 I4.6 J1.4
G02 X2.7 Y1.7 I3.9 J-3.1
G03 X-0.5 Y0.2 I-0.4 J-0.2
G03 X-0.6 Y-0.2 I0.3 J-2.1
G02 X-0.2 Y-0.1 I-1.7 J4.2
G03 X-2.4 Y-3.3 I1.7 J-3.8
G03 X0.6 Y-3 I3.9 J-0.8
G01 X-0.4 Y0
G03 X-0 Y0.1 I-0.2 J-0
G03 X-0.1 Y0.1 I-0.5 J-0.4
G02 X-0.1 Y0.1 I0.5 J0.6
G03 X-0.2 Y-0.1 I-0 J-0.2
G03 X-0.1 Y-0.1 I0.3 J-0.2
G02 X-0 Y-0.1 I-0.6 J0.2
G02 X-0 Y-0.1 I-0.1 J0.1
G02 X-0.1 Y-0 I-0.1 J0.1
G02 X-0.1 Y0 I0 J0.5
G03 X-0.1 Y0.2 I-0.3 J-0.1
G03 X-0.2 Y0 I-0.2 J-0.2
G02 X-0 Y-0.1 I-0.4 J0.1
G02 X-0.1 Y-0.1 I-0.1 J0.1
G02 X-0.1 Y0 I-0 J0.2
G02 X-0.1 Y0 I0.2 J0.8
G03 X-0.2 Y0 I-0.3 J-0.7
G03 X-0.2 Y-0 I-0 J-0.3
M08
G00 X-12.3 Y6.6
M07
G02 X-0 Y0.1 I0 J0.1
G02 X0.3 Y0.1 I0.3 J-0.5
G01 X5 Y-0.1
G03 X0.2 Y0.3 I-6.2 J4.7
G02 X0.5 Y0.6 I4.1 J-2.7
G02 X0.6 Y0.4 I1.1 J-1
G01 X9.4 Y-0.1
G03 X0.5 Y-0.3 I3.5 J5.8
G02 X0.5 Y-0.3 I-2.7 J-5.5
G02 X0.5 Y-0.4 I-1.1 J-1.8
G03 X-0.6 Y0.1 I-0.6 J-2.3
G03 X-0.7 Y-0 I0.2 J-8.4
G02 X-0.3 Y-0 I-2 J21.5
G02 X-0.5 Y-0.1 I-0.7 J2.1
G02 X-0.4 Y0 I-0.1 J1.3
G02 X-0.4 Y0.2 I0.1 J0.7
G02 X-2.2 Y-0.1 I-1.8 J18.9
G02 X-0.2 Y-0 I-0.2 J0.3
G02 X-0.3 Y0.1 I0.3 J1.4
G03 X-0.2 Y0.1 I-0.8 J-1.9
G03 X-0.2 Y0 I-0.1 J-0.5
G03 X-0.2 Y-0.1 I0 J-0.2
G03 X-0.1 Y-0.2 I0.4 J-0.4
G03 X-0.1 Y-0.1 I0.1 J-0.1
G03 X0 Y-0.1 I0.6 J-0.1
G02 X0 Y-0.1 I-1.3 J-0.1
G02 X-10 Y-0.2 I-8 J223.1
G02 X-0.8 Y0 I-0.1 J5.7
G02 X-0.4 Y0.1 I0.1 J0.9
M08
G00 X7.7 Y-3.7
M07
G02 X0.4 Y1.8 I5 J-0.3
G02 X1.2 Y1.4 I3 J-1.3
G02 X0.8 Y-0.2 I0.2 J-1
G02 X0.5 Y-0.6 I-1.3 J-1.8
G02 X-0.4 Y-0.2 I-0.6 J0.7
G02 X-0.4 Y-0.1 I-0.9 J3.5
G03 X-0.7 Y-0.2 I0.2 J-2.4
G03 X-0.5 Y-0.5 I0.3 J-0.8
G03 X-0.4 Y-0.4 I0.5 J-0.9
G03 X-0.2 Y-0.5 I2.5 J-1.5
G02 X-0.2 Y-0.5 I-2.7 J1
G01 X-0.3 Y-0.1
M08
G00 X1.1 Y-4.3
M07
G03 X-0.1 Y1 I-26.4 J-0.9
G02 X-0 Y1.6 I14.7 J1.3
G02 X0.3 Y1.6 I5.4 J-0.2
G02 X0.1 Y0.2 I0.4 J-0.2
G02 X0.2 Y0.1 I1 J-1.2
G03 X0.4 Y0.3 I-1.4 J2.2
G01 X0.1 Y0.1
G03 X-0.6 Y-1.8 I5.9 J-3
G01 X0.1 Y-0.1
G03 X0.2 Y0.5 I-6.2 J2.3
G02 X0.2 Y0.5 I4.8 J-1.3
G02 X0.3 Y0.5 I1.7 J-0.7
G03 X-0.3 Y-1.8 I7.6 J-2.1
G03 X0.1 Y-2.2 I11.1 J-0.8
G03 X0.2 Y0.3 I-0.2 J0.3
G03 X0 Y0.4 I-1.9 J0.4
G02 X0 Y0.4 I2.5 J-0
G02 X0.2 Y0.3 I0.6 J-0.1
G01 X0 Y0.2
G02 X0.2 Y0 I0 J-0.3
G02 X0.1 Y-0 I-0.1 J-0.2
G02 X0.1 Y-0.1 I-0.2 J-0.3
G03 X-0 Y-0.4 I19.9 J-1.4
G02 X-0.2 Y-1.6 I-10.6 J0.3
G02 X-0.7 Y-1.5 I-3.1 J0.5
G02 X-0.5 Y0.4 I0.1 J0.7
G02 X-0.2 Y0.6 I2.4 J1.2
G03 X-0.1 Y0.4 I-3.7 J-0.9
M08
G00 X36.4 Y3.5
M07
G02 X0.1 Y0.6 I2.6 J0.1
G03 X0 Y0.2 I-4.6 J0.8
G01 X3.3 Y0.1
G02 X0.1 Y-0.7 I-1.5 J-0.5
G02 X-0.3 Y-0.6 I-0.9 J0.1
G01 X-2.9 Y0
G02 X-0.2 Y0.2 I0.2 J0.3
G02 X-0.1 Y0.3 I0.6 J0.3
M08
G00 X-41 Y-4.1
M07
G02 X-0.5 Y2.7 I6.3 J2.6
G02 X0.4 Y2.8 I13.8 J-0.3
G02 X0.1 Y0.1 I0.1 J-0
G02 X0.2 Y-0 I0 J-0.6
G02 X0.3 Y-0.2 I-0.6 J-1.7
G02 X-0.1 Y-0.4 I-14.6 J3.5
G03 X-0.3 Y-1.2 I7.7 J-2.2
G03 X0.1 Y-1.2 I2.6 J-0.4
G03 X0.2 Y0.8 I-0.7 J0.6
G01 X0.1 Y0
G02 X0.1 Y-0.8 I-2.6 J-0.7
G02 X-0.1 Y-0.8 I-7.9 J0.4
G03 X-0.1 Y-0.6 I12.9 J-1.7
G03 X-0.1 Y-0.2 I1.1 J-0.6
G03 X-0.1 Y-0.2 I4.1 J-1.3
G02 X-0.1 Y-0.4 I-2 J0.5
G02 X-0.3 Y-0.3 I-0.5 J0.2
M08
G00 X32.1 Y-1.2
M07
G02 X0.1 Y0.2 I0.4 J-0.1
G02 X0.2 Y0.1 I0.5 J-0.6
G02 X0.3 Y0.1 I1.1 J-3
G03 X0.3 Y0.1 I-0.8 J3.1
G03 X0.2 Y0.1 I-0.2 J0.7
G01 X0.2 Y0
G03 X-0 Y-0.5 I9.7 J-1.1
G02 X-0 Y-0.5 I-12.7 J0.8
G01 X-1.2 Y-0.1
G02 X-0.1 Y0.4 I0.8 J0.3
M08
G00 X0.4 Y-1.4
M07
G03 X0.1 Y0.2 I-0.9 J0.5
G02 X0.1 Y0.2 I1.1 J-0.4
G02 X0.2 Y0.2 I0.4 J-0.3
G02 X0.7 Y-0 I0.3 J-1
G02 X0.6 Y-0.3 I-1.1 J-2.7
G03 X0.3 Y-0.2 I3.4 J5
G01 X-1.8 Y0
M08
G00 X1.3 Y1.2
M07
G02 X0.2 Y0.5 I1 J-0
G01 X0 Y0.2
G03 X3.8 Y0.2 I-5.6 J175.2
G02 X7.1 Y0.2 I5.4 J-84
G02 X-0.1 Y-1 I-0.9 J-0.4
G02 X-0.8 Y-0.8 I-3 J2.3
G03 X-0.4 Y-0.3 I6.1 J-7.6
G03 X-0.3 Y-0.3 I1.7 J-2
G03 X-3.9 Y-0 I-1.3 J-63
G02 X-3.9 Y-0 I-2.6 J63
G03 X-0.3 Y0.2 I-1.2 J-1.4
G03 X-0.3 Y0.2 I-4.1 J-7.1
G02 X-0.5 Y0.3 I2.9 J5.8
G02 X-0.4 Y0.3 I0.8 J1.4
G02 X-0.2 Y0.4 I0.5 J0.4
M08
G00 X-55.3 Y4.4
M07
G02 X-0.2 Y0.2 I0.1 J0.4
G02 X-0.1 Y0.4 I0.7 J0.5
G02 X-0.3 Y2.9 I13.8 J3.1
G02 X0.1 Y2.7 I32.9 J0.2
G03 X0 Y0.2 I-512.5 J32.3
G02 X-0.4 Y0.9 I2.8 J1.8
G02 X0 Y1 I1.5 J0.4
G02 X0.2 Y0.4 I1.7 J-0.6
G02 X0.4 Y0.3 I0.7 J-0.5
G02 X0.5 Y0.1 I0.6 J-2.6
G02 X0.5 Y0 I0.4 J-9.4
G03 X0.6 Y0 I0.2 J8.9
G03 X0.5 Y0.1 I-0.1 J2.6
G03 X-0.2 Y0.1 I-1.5 J-4.8
G02 X-0.7 Y0.2 I0.5 J2.2
G02 X-0.3 Y0.6 I0.3 J0.6
G02 X0 Y0.4 I1.1 J0.1
G02 X0.2 Y0.4 I0.9 J-0.2
G02 X0.6 Y0.1 I0.7 J-1.5
G02 X0.7 Y0 I0.5 J-6.9
G03 X0.7 Y0 I0.2 J7.4
G03 X0.6 Y0.1 I-0.1 J2
G02 X-2.1 Y4 I4.4 J4.8
G02 X0.6 Y4.4 I8.5 J1.1
G02 X1.3 Y1.6 I4.6 J-2.5
G02 X1.7 Y1.1 I6 J-7.2
G03 X-0.1 Y0.4 I-0.9 J-0.1
G03 X-0.2 Y0.1 I-0.3 J-0.2
G03 X-0.3 Y-0 I-0.1 J-0.5
G03 X-0.3 Y-0.1 I0.8 J-2.5
G02 X-0.4 Y-0.1 I-0.7 J1.6
G02 X-0.3 Y0.1 I-0.1 J0.3
G02 X0.2 Y0.5 I2.4 J-0.8
G02 X0.4 Y0.4 I0.9 J-0.6
G01 X13.7 Y4
G03 X3 Y0.9 I-11 J44.6
G02 X3.7 Y1 I11.8 J-36.1
G02 X3.9 Y0.3 I2.9 J-13.6
G02 X0.2 Y-0.2 I-0.3 J-0.4
G02 X0.1 Y-0.3 I-1.5 J-0.7
G03 X0.1 Y-0.3 I1.7 J0.5
G03 X0.2 Y-0.2 I0.6 J0.3
G02 X2.1 Y0.6 I21.5 J-69.3
G03 X2.5 Y0.8 I-15.3 J55.6
G01 X0.2 Y8
G02 X0.2 Y0.2 I0.5 J-0.3
G02 X0.3 Y0.1 I0.4 J-0.9
G02 X0.7 Y-0.1 I0.1 J-2.6
G01 X0.2 Y-0.3
G01 X-0.2 Y-7.5
G03 X2.3 Y0.4 I-2.6 J19.6
G02 X2.4 Y0.5 I4.8 J-18.5
G02 X2.6 Y-0.1 I0.9 J-7.6
G02 X7.4 Y-6.4 I-2.1 J-9.9
G01 X-0.1 Y-0.1
G03 X0.2 Y-0.1 I0.3 J0.3
G03 X0.1 Y0 I0 J0.2
G03 X0.1 Y0.1 I-0.2 J0.3
G03 X0.1 Y0.1 I-1.5 J1.1
G02 X0.1 Y0.2 I1.5 J-0.8
G02 X0.2 Y0.1 I0.4 J-0.3
G02 X0.6 Y-0.1 I0.2 J-1.5
G02 X0.4 Y-0.5 I-0.2 J-0.6
G03 X-0 Y-0.1 I0.3 J-0.1
G03 X0.1 Y-0.1 I0.1 J0
G03 X0.1 Y-0 I0.1 J0.3
G03 X0.1 Y0 I0 J1.4
G02 X0.1 Y0 I0.1 J-2
G03 X0.3 Y0.1 I-0.1 J0.5
G03 X0.2 Y0.2 I-1 J1.3
G02 X0.2 Y0.2 I1.4 J-1.3
G02 X0.2 Y0.1 I0.4 J-0.5
G02 X0.5 Y-0.1 I0.1 J-0.6
G02 X0.3 Y-0.3 I-1.2 J-1.6
G03 X-0 Y-0.2 I0.3 J-0.1
G03 X0 Y-0.1 I0.2 J0
G03 X0.1 Y-0.1 I0.2 J0.2
G03 X0.1 Y-0 I0.5 J0.9
G02 X0.1 Y-0 I-0.4 J-0.9
G02 X0.6 Y-0 I0.2 J-2.6
G02 X0.6 Y-0.1 I-1.1 J-7.9
G03 X0.9 Y-0.1 I1 J4.5
G03 X0.8 Y0.2 I0 J1.3
G02 X0.5 Y-0 I0.2 J-1
G02 X0.4 Y-0.2 I-0.9 J-2.4
G03 X0.1 Y-0.1 I5 J9.2
G03 X0.2 Y-0.3 I0.6 J0.2
G03 X0.3 Y-0.2 I2.1 J2.1
G02 X0.4 Y-0.3 I-1.7 J-2.3
G02 X0.2 Y-0.4 I-0.7 J-0.6
G02 X1.4 Y-2.8 I-40.4 J-21.1
G03 X1.1 Y-2.3 I52.1 J23.1
G03 X5.7 Y-1 I19.8 J97.4
G02 X2.9 Y-0.5 I-31.5 J-208.4
G01 X0.4 Y-0.4
G01 X-0.1 Y-7.3
G01 X3.3 Y-0.1
G02 X-0 Y-1.3 I-16.4 J-0.6
G03 X-0 Y-1.3 I15.9 J-0.7
G03 X0.2 Y-1.2 I3.9 J0.1
G02 X-0.1 Y-0.2 I-0.9 J0.3
G02 X-0.1 Y-0.2 I-2.3 J1.6
G03 X-0.2 Y-0.3 I1 J-0.9
G03 X0 Y-0.4 I0.5 J-0.2
G03 X0.1 Y-0 I0.1 J0.6
G03 X0.2 Y0 I-0.2 J3.2
G02 X0.4 Y0 I0.2 J-1.8
G02 X0.3 Y-0.2 I-0 J-0.5
G01 X0.3 Y-0.4
G01 X-0.1 Y-4
G02 X-0.7 Y-0.6 I-1.1 J0.5
G02 X-0.9 Y-0.2 I-1.5 J4
G03 X-0.5 Y-0.1 I1.1 J-7.2
G02 X-0.5 Y-3.6 I-20.3 J1.3
G02 X-1.7 Y-3.2 I-6.8 J1.7
G02 X-1.4 Y-0.5 I-1.9 J2.8
G02 X-1.6 Y-0.1 I-1.3 J10.6
G03 X-1.6 Y-0.1 I-0.2 J-10.7
G02 X-1.5 Y1.2 I1 J2.8
G02 X-0.8 Y1.8 I7.9 J4.7
G03 X-0.2 Y0.5 I-28.8 J-10.7
G02 X-6 Y-0 I-3.5 J68.5
G03 X-7.2 Y-0.2 I-2.3 J-50.3
G03 X-0.1 Y-0.2 I147.3 J-39.2
G02 X-0.7 Y-2.3 I-13.8 J3.3
G02 X-1.5 Y-1.9 I-4.5 J1.9
G03 X-1 Y-0.1 I2.7 J-24.1
G02 X-2 Y-0.2 I-2.1 J12.2
G02 X-1.9 Y0.5 I-0 J3.8
G03 X-0.8 Y1 I-22.8 J-17.9
G02 X-0.2 Y0.2 I128.6 J108.7
G02 X-1.4 Y5.9 I13.6 J6.4
G02 X-0.3 Y-0.1 I-0.3 J0.4
G02 X-0.3 Y0.1 I0.2 J1.2
G03 X-0.2 Y0.1 I-0.9 J-2.3
G03 X-0.2 Y0 I-0.2 J-0.7
G02 X-0.4 Y-0.3 I-0.9 J0.8
G02 X-0.5 Y-0.2 I-1.4 J3.4
G03 X-0.5 Y-0.2 I1.1 J-4.2
G03 X-0.4 Y-0.3 I0.5 J-1.3
G03 X-2 Y0.4 I-3.6 J-12.6
G02 X-1.6 Y0.3 I2.2 J16.2
G03 X-0.4 Y-0.9 I5.9 J-3
G02 X-0.5 Y-1.1 I-5.2 J1.7
G02 X-0.9 Y-0.8 I-1.8 J1.1
G03 X-2.2 Y-0.1 I-0.6 J-13
G02 X-2.2 Y-0.1 I-1.5 J12.7
G02 X-1.9 Y0.7 I0.2 J3.6
G01 X-0.3 Y0.4
G03 X-0.9 Y0.1 I-0.7 J-4
G03 X-1 Y-0.1 I0.6 J-14.6
G02 X-2 Y0 I-1 J5.8
G02 X-1.3 Y1.4 I0.5 J1.8
G02 X-0.7 Y3.4 I9.9 J3.7
G01 X-2.8 Y0.1
G02 X-0 Y0.3 I0.9 J0.2
G02 X0.1 Y0.4 I3.2 J-0.3
G03 X0.1 Y0.4 I-3.2 J0.7
G03 X-0 Y0.3 I-0.9 J0.1
G02 X-0.1 Y0 I-0 J0.1
G02 X-0.1 Y0.1 I0.2 J0.2
G01 X-0.8 Y-0.6
G03 X-0.8 Y0 I-0.5 J-4.9
G03 X-0.9 Y-0.1 I1.1 J-20.1
G02 X-2.1 Y-0 I-1.1 J7.8
G02 X-1.4 Y1.2 I0.2 J1.7
G02 X-0.2 Y0.1 I-0 J0.5
G02 X-0.1 Y0.1 I0.1 J0.2
G02 X-0 Y0.2 I0.6 J0.2
G02 X0 Y0.2 I2.4 J0
G03 X0 Y0.2 I-2.1 J0.2
G03 X-0 Y0.2 I-0.4 J-0
G03 X-0.1 Y0.1 I-0.2 J-0.1
G03 X-0.3 Y0 I-0.1 J-0.6
G03 X-0.7 Y0.5 I-0.8 J-0.4
G03 X-0.9 Y-0 I-0.4 J-3.1
G02 X-0.5 Y-0 I-0.6 J4.5
G03 X-0.2 Y-0.1 I0.1 J-0.4
G03 X-0.2 Y-0.2 I1 J-0.9
G02 X-0.2 Y-0.2 I-1 J0.5
G02 X-0.3 Y-0.1 I-0.2 J0.3
G03 X-0.4 Y-0.1 I-0 J-0.8
G03 X-0.2 Y-0.3 I0.3 J-0.5
G03 X-0.1 Y-0.4 I1.2 J-0.6
G03 X-0 Y-0.4 I5.3 J-0.8
G02 X-0.1 Y-0.5 I-4.5 J0.3
G02 X-0.2 Y-0.5 I-1.1 J0.2
G01 X-0.3 Y-0.3
G03 X-1.2 Y-0.1 I3.7 J-75.8
G02 X-2.9 Y-0.1 I-2.2 J26.9
G03 X-0.4 Y0.2 I-0.5 J-0.4
G03 X-0.5 Y-0 I-0.1 J-2.1
G02 X-0.3 Y-0 I-0.6 J3.1
G02 X-0.3 Y0 I-0.1 J0.8
M08
G00 X46.2 Y-0.5
M07
G02 X-0.1 Y2 I18.2 J1.7
G03 X0 Y0.2 I-122.8 J0.3
G03 X0.1 Y0.1 I-0.1 J0.4
G03 X0.1 Y0.1 I-0.1 J0.2
G03 X0.1 Y0.2 I-0.5 J0.3
G02 X0 Y0.1 I1.4 J-0.3
G01 X0.8 Y0.2
G01 X26.7 Y0.6
G02 X0.3 Y-0.3 I-0.3 J-0.7
G02 X0.1 Y-0.5 I-1 J-0.6
G02 X-0.1 Y-1.2 I-5.1 J-0.3
G03 X-0.1 Y-0.5 I12.6 J-1.6
G03 X-0 Y-0.5 I3.1 J-0.3
G03 X-0 Y-0.2 I1.2 J-0.2
G03 X0 Y-0.3 I5.3 J0.1
G02 X-0 Y-0.7 I-2.2 J-0.2
G02 X-0.4 Y-0.5 I-0.6 J0.1
G02 X-2.7 Y-0.5 I-56.5 J295.5
G03 X-4.5 Y-0.9 I30.5 J-171
G01 X-11.4 Y-0.3
G01 X-8.5 Y0.8
G02 X-0.5 Y1.9 I4.1 J2.2
M08
G00 X24.7 Y6.1
M07
G01 X0 Y2.3
G02 X1.4 Y-0 I0.4 J-24.4
G03 X0.9 Y-0 I1.1 J33.3
G01 X-0 Y-2.3
G01 X-2.3 Y0.1
M08
G00 X-60.4 Y0.4
M07
G02 X-0.1 Y1.8 I11.5 J1.3
G03 X0 Y1 I-27.2 J0.6
G01 X0.3 Y0
G03 X0 Y-0.6 I14.8 J0.8
G02 X0.1 Y-1.3 I-8.9 J-1
G02 X-0.1 Y-0.5 I-2.3 J0.1
G02 X-0.2 Y-0.4 I-0.9 J0.3
M08
G00 X59.7 Y-1.7
M07
G03 X0.1 Y0.3 I-0.5 J0.3
G03 X0 Y0.3 I-2.1 J0.2
G02 X-0 Y0.3 I2.5 J0.1
G03 X2 Y-0.1 I1.5 J12.4
G02 X1 Y0 I0.5 J-32.2
G01 X0 Y-0.7
G01 X-3.1 Y-0.1
M08
G00 X-59.8 Y-0.7
M07
G01 X0 Y1.8
G01 X0.4 Y0
G03 X-0 Y-0.3 I1.5 J-0.3
G03 X0 Y-0.4 I6.1 J0.2
G02 X-0 Y-0.7 I-2.6 J-0.3
G02 X-0.4 Y-0.4 I-0.5 J0.1
M08
G00 X29.3 Y10.9
M07
G02 X-0.3 Y0.8 I4.1 J2.2
G03 X-0.3 Y0.8 I-5 J-1.5
G03 X-0.6 Y0.7 I-2 J-1
G01 X4.3 Y0.1
G01 X0.1 Y0.1
G01 X-0.5 Y5.2
G02 X-0.1 Y0.1 I0.4 J0.6
G02 X-0.1 Y0.1 I0.3 J0.3
G02 X-0 Y0.2 I0.6 J0.2
G03 X-0 Y0.1 I-0.7 J0.1
G03 X-0 Y0.1 I-0.2 J-0
G03 X-0.1 Y0.1 I-0.2 J-0.2
G03 X-0.3 Y0.1 I-0.4 J-1
G03 X-0.9 Y0.1 I-20.3 J-239.7
G02 X-1.9 Y0.2 I14.1 J175.7
G02 X1.2 Y0.4 I1.8 J-3.8
G02 X1.3 Y0.1 I2 J-13.6
G03 X1 Y0.1 I-1 J17.5
G03 X0 Y-0.1 I0.1 J-0
G03 X0.1 Y-0.1 I0.3 J0.2
G02 X0.1 Y-0 I-0.3 J-0.4
G02 X15.2 Y-0.7 I5.7 J-42.4
G01 X-5.7 Y0.5
G01 X-0.1 Y-0.1
G03 X0.7 Y-1.9 I78.8 J30.5
G02 X1.5 Y-4 I-45 J-19.2
G03 X1.4 Y-0.3 I2.1 J7.1
G03 X1.4 Y-0.1 I1.8 J18.5
G02 X2 Y-0.2 I-0.2 J-15.4
G02 X0.2 Y-0 I-0 J-1.3
G02 X0.2 Y-0.1 I-0.8 J-4.2
G03 X0.5 Y-0.1 I0.6 J2
G03 X0.4 Y0.1 I0 J0.7
G03 X-1.9 Y1.5 I-3.7 J-2.8
G03 X-0.9 Y0.2 I-1.2 J-2.8
G02 X-1.2 Y1 I1.5 J3.2
G02 X-0.9 Y1.3 I7.8 J6.2
G03 X-0.6 Y1 I-11.8 J-7
G03 X-0.8 Y0.9 I-3.7 J-2.7
G01 X0 Y0.2
G01 X2.3 Y-0.2
G03 X0.2 Y-1.2 I2.2 J-0.2
G03 X0.6 Y-1.1 I7.4 J3.4
G02 X0.1 Y-0.2 I-41 J-25.3
G03 X0.1 Y0 I0.1 J0.1
G03 X0.1 Y0.1 I-0.3 J0.4
G02 X0 Y0 I1.1 J-1
G02 X-0.1 Y0.2 I0.3 J0.2
G02 X-0 Y0.2 I1.5 J0.1
G03 X-0 Y0.2 I-1.5 J0.1
G03 X-0.1 Y0.2 I-0.4 J-0
G02 X0.7 Y-0.2 I0.2 J-0.6
G02 X0.4 Y-0.6 I-1.8 J-1.6
G03 X0.2 Y-0.4 I5 J2.5
G03 X0.2 Y-0.3 I1.2 J0.7
G03 X0.4 Y-0.9 I2.9 J0.8
G03 X0.6 Y-0.8 I8.2 J5.5
G02 X0.5 Y-0.6 I-9.2 J-7.5
G02 X0.4 Y-0.7 I-2.8 J-2
G03 X1.1 Y-0.3 I2.2 J5.9
G03 X1.1 Y0 I0.5 J2.7
G01 X7.1 Y-1.1
G01 X0.1 Y-0.2
G03 X-0.1 Y-4.8 I98.5 J-3.6
G02 X-0.2 Y-6.1 I-69.8 J-1.3
G01 X-0.2 Y-0.2
G03 X-12.5 Y-0.2 I3.8 J-506.6
G02 X-4.9 Y-0.1 I-39.8 J1394.1
G03 X0 Y3.4 I-492.1 J2.2
G02 X0.1 Y8.1 I236.8 J1.7
G02 X17.4 Y-0.3 I7.6 J-63.9
G02 X0.1 Y0.1 I0.7 J-0.6
G03 X0.1 Y0.1 I-0.3 J0.3
G03 X-0 Y0.1 I-0.1 J0.1
G03 X-17.5 Y0.4 I-10.6 J-74
G03 X-0.6 Y-0.6 I0.3 J-0.8
G03 X-0 Y-0.8 I2.4 J-0.5
G02 X-0 Y-0.7 I-4.4 J-0.3
G01 X-0.1 Y-9.9
G01 X-0.1 Y0
G03 X-0.5 Y1.5 I-7.4 J-1.6
G02 X-0.4 Y1.2 I8.2 J3.5
G02 X-0.1 Y1.4 I3.4 J0.9
G03 X-0.3 Y0.3 I-0.4 J-0.1
G03 X-0.4 Y0.1 I-0.7 J-1.6
G02 X-0.1 Y0 I1.5 J7.4
G02 X-0.1 Y0.1 I0.3 J0.3
G02 X0.1 Y0.1 I0.1 J-0.2
G02 X0.2 Y-0 I0 J-1.9
G03 X0.2 Y-0 I0.2 J2.2
G03 X0.2 Y0 I0 J0.5
G03 X0.1 Y0.1 I-0.1 J0.2
G03 X-0 Y0.2 I-0.4 J0.1
G01 X0 Y4
G03 X-0.6 Y0.3 I-0.6 J-0.4
G02 X-1.2 Y0.1 I10.1 J166.2
G03 X-6.4 Y0 I-3.2 J-33.2
G03 X-0.4 Y0.1 I-0.4 J-0.8
G03 X-0.5 Y-0.1 I-0 J-1.4
G03 X-0.3 Y-0.2 I0.2 J-0.7
G03 X-0 Y-0.3 I0.2 J-0.2
G02 X-0.2 Y0.3 I3.1 J2.6
G03 X-0.2 Y0.3 I-3.4 J-2.3
G03 X-0.3 Y0.3 I-1.2 J-1
G01 X-0.1 Y-0.1
G02 X-0.7 Y0.7 I1.1 J1.7
M08
G00 X-29 Y-5.2
M07
G02 X-0.3 Y0.3 I0.2 J0.5
G02 X-0.1 Y0.4 I0.9 J0.4
G02 X0.2 Y0.8 I2.1 J-0.1
G02 X0.2 Y-0.5 I-0.5 J-0.5
G02 X-0 Y-0.5 I-2.2 J-0.1
G03 X-0 Y-0.5 I2.4 J-0.4
M08
G00 X1.1 Y9.2
M07
G02 X0 Y1.9 I3.6 J0.9
G02 X0.7 Y1.8 I7.7 J-2
G02 X2.3 Y2.4 I5.7 J-3.2
G03 X1.9 Y0.5 I-4.2 J20.2
G02 X1.9 Y0.5 I6.1 J-19.7
G02 X0.1 Y-0.1 I-0.5 J-0.4
G02 X0.1 Y-0.1 I-1.7 J-0.9
G03 X0.1 Y-0.2 I1.4 J0.6
G03 X0.1 Y-0.2 I0.5 J0.3
G02 X2.4 Y1.4 I4.9 J-5.8
G02 X2.6 Y0.7 I7.5 J-21.3
G03 X1.8 Y0.5 I-7.7 J33.1
G02 X0.1 Y-0.2 I-0.5 J-0.4
G02 X0.1 Y-0.2 I-2.1 J-0.8
G03 X0.1 Y-0.3 I1.7 J0.4
G03 X0.2 Y-0.2 I0.6 J0.2
G03 X0.5 Y0.2 I-0.4 J1.3
G03 X0.5 Y0.4 I-4.2 J5.5
G02 X0.4 Y0.3 I6.5 J-7
G02 X0.4 Y0.2 I1.5 J-1.8
G02 X1.5 Y0.7 I3.4 J-5.6
G02 X1.7 Y0.4 I5.8 J-19.3
G03 X2.3 Y0.6 I-2.8 J14.5
G01 X0.1 Y-1.6
G01 X-0.1 Y0.1
G03 X-2.6 Y-6 I8.2 J-7.1
G02 X-1.5 Y-0.1 I-1.7 J10.2
G03 X-1.5 Y-0.2 I0.1 J-8.9
G03 X-1.5 Y-0.7 I0.7 J-3.4
G02 X-1.6 Y-0.3 I-2.3 J7.2
G02 X-1.6 Y-0.1 I-1.9 J20.7
G03 X-2.1 Y-0.2 I0.1 J-14.8
G03 X-2.1 Y-0.8 I0.9 J-5.8
G03 X-3.7 Y-0.6 I1 J-17
G02 X-3.5 Y-0.6 I-4.5 J15.7
M08
G00 X-12.8 Y-29.6
M19
M02